X:61
T:Untitled 2voices. Dix.61
M:2/4
L:1/8
Q:1/4=110
S:Anon. MS dated 1811, from Dixon collection, Holton le Moor, Lincs.
R:polka
N:Repeat signs added at start
O:England;Lincolnshire;Holton le Moor
Z:vmp.R.Greig 2012 <http://www.village-music-project.org.uk>
K:Eb
[V:1]|:.Be .Ge|dF/G/ A/G/F|.B.f A>f|e[G/E/][A/F/] [B/G/][A/F/][GE]|.B.e. G.e|
[V:2]|:E,[DB,G,] E,[DB,G,]|B,,[CA,F,] [CA,F,][CA,F,]|B,,[A,B,D] B,,[A,B,D]|E,[B,G,] [B,G,][B,G,]|E,[DB,G,] E,[DB,G,]|
[V:1]d[D/F/][E/G/] [A/F/][G/E/][FD]|d[c’a] .B.a|1e E/F/ G/F/E:|2[eBG][eBG] [eBG]z||
[V:2]B,,[B,A,F,] [B,A,F,][B,A,F,]|B,,[DB,A,] B,,[DB,A,]|1[B,G,E,] E,/F,/ G,/F,/E,:|2[EB,G,E,][EB,G,E,] [EB,G,E,]z||
[V:1]|:.g/.a/.b/.c’/ .b/.g/.a/.f/|.g.e .e/d/e|.f.c .d.B|ee e/d/e|
[V:2]|:[EB,G,E,C,]z [B,F,D,B,,]z|E,[EB,G,] [EB,G,][EB,G,]|A,,[FCA,] B,,[DB,A,]|E,[EB,G,] [EB,G,][EB,G,]|
[V:1]g/a/b/c’/ b/g/a/f/|ge e/d/e|.f.c dB|{B}e[eBG] [eBG]z:|
[V:2][EB,G,E,C,]z [B,F,D,B,,]z|E,[EB,G,] [EB,G,][EB,G,]|A,,[FCA,] B,,[DB,A,]|[EB,G,E,][EB,G,E,] [EB,G,E,]z:|
